www/assets/icons/image_aspect_ratio.svg

<svg xmlns="http://www.w3.org/2000/svg" width="24" height="24" viewBox="0 0 24 24" fill='currentColor'><path d="M16 10h-2v2h2zm0 4h-2v2h2zm-8-4H6v2h2zm4 0h-2v2h2zm8-6H4c-1.1 0-2 .9-2 2v12c0 1.1.9 2 2 2h16c1.1 0 2-.9 2-2V6c0-1.1-.9-2-2-2m0 14H4V6h16z"/></svg>

<svg width="24" height="24" viewBox="0 0 24 24" xmlns="http://www.w3.org/2000/svg" fill='currentColor'><path d="M16 10H14V12H16V10ZM16 14H14V16H16V14ZM8 10H6V12H8V10ZM12 10H10V12H12V10ZM20 4H4C2.9 4 2 4.9 2 6V18C2 19.1 2.9 20 4 20H20C21.1 20 22 19.1 22 18V6C22 4.9 21.1 4 20 4ZM20 18H4V6H20V18Z"/></svg>
